X: 023
T: Miss Margaret Greirson's Reel
R: reel
M: C|
L: 1/8
Z: 2010 John Chambers <jc:trillian.mit.edu>
B: Abraham Mackintosh "A Collection of Strathspeys, Reels, Jigs &c.", Newcastle, after 1797, p.2
F: http://imslp.info/files/imglnks/usimg/a/a8/IMSLP80796-PMLP164326-Abraham_Mackintosh_coll.pdf
K: F
V: 1
A |\
F2FA cAcf | F2FA BGGA | F2FA cAcf | defg aff :|
f/g/ |\
af-fc Ac-cf | affd eggb | affc Ac-cf | defg aff ||
f/g/ |\
affc Accf | affd eggb | afge fdcA | BGcB AFF |]
V: 2 clef=bass middle=d
z |\
[a2f2][a2f2] [a2f2][a2f2] | [a2f2][a2f2] c2c2 | [a2f2][a2f2] [a2f2][a2f2] | b2ag f2F :|
z |\
[a2f2][a2f2] [a2f2][a2f2] | f2b2 c'2e2 | [a2f2][a2f2] [a2f2][a2f2] | b2ag f2F2 |
[a2f2][a2f2] [a2f2][a2f2] | f2b2 c'2e2 | f2c2 d2A2 | B2c2 f2F |]

%%sep 2 1 500

